_src/static/img/icon/map.svg

<svg width="30" height="42" viewBox="0 0 30 42" fill="none" xmlns="http://www.w3.org/2000/svg">
<path d="M30 15.0552C30 6.75435 23.2707 0 14.9985 0C6.72835 0 0 6.75435 0 15.0552C0 19.968 2.54725 23.6124 6.77189 29.6506C8.9332 32.7387 11.618 36.5788 14.5839 41.5293C14.6729 41.6743 14.8293 41.7647 14.9995 41.7647C15.1697 41.7647 15.3271 41.6733 15.4161 41.5293C18.382 36.5788 21.0658 32.7387 23.2281 29.6506C27.4518 23.6124 30 19.968 30 15.0552ZM14.9985 20.8838C11.7942 20.8838 9.19248 18.2735 9.19248 15.0562C9.19248 11.837 11.7942 9.22862 14.9985 9.22862C18.2039 9.22862 20.8055 11.837 20.8055 15.0562C20.8055 18.2735 18.2058 20.8838 14.9985 20.8838Z" fill="#1B3ACD"/>
</svg>

<svg width="30" height="42" fill="none" xmlns="http://www.w3.org/2000/svg"><path d="M30 15.055C30 6.755 23.27 0 14.998 0 6.729 0 0 6.754 0 15.055c0 4.913 2.547 8.557 6.772 14.596 2.161 3.088 4.846 6.928 7.812 11.878a.489.489 0 00.415.236c.17 0 .328-.092.417-.236 2.966-4.95 5.65-8.79 7.812-11.878C27.452 23.612 30 19.968 30 15.055zm-15.002 5.829c-3.204 0-5.806-2.61-5.806-5.828 0-3.219 2.602-5.827 5.806-5.827 3.206 0 5.807 2.608 5.807 5.827 0 3.217-2.6 5.828-5.806 5.828z" fill="#1B3ACD"/></svg>
